X: 21979
T: Kitty O'Connor
R: polka
M: 2/4
K: Gmajor
G>G G(A|B)G GF/E/|D>E DC|(B,C) DE/F/|
G>G G(A|B)G (GD)|EA (AB)|AD (EF)|
G>G G(A|B)G GF/E/|D>E DC|(B,C) DE/F/|
G>A G(E|D)B, (G,A,)|B,2A,2|G,4|
|:uG,>G, G,(A,|B,)C DC|B,>C B,(A,|B,)C DE/F/|
G>A G(E|D)B, (G,A,)|B,2A,2|1 A,4:|2 G,D EF||

